client/src/assets/images/codeRight.svg

<?xml version="1.0" encoding="UTF-8"?>
<svg width="530px" height="760px" viewBox="0 0 530 760" version="1.1" xmlns="http://www.w3.org/2000/svg" xmlns:xlink="http://www.w3.org/1999/xlink">
    <!-- Generator: Sketch 50.2 (55047) - http://www.bohemiancoding.com/sketch -->
    <title>/&gt;</title>
    <desc>Created with Sketch.</desc>
    <defs></defs>
    <g id="/&gt;" stroke="none" stroke-width="1" fill="none" fill-rule="evenodd">
        <g id="code-copy" transform="translate(41.000000, 115.000000)" fill-rule="nonzero">
            <path d="M175.329982,6.71727363 L152.464898,0.551005442 C149.521855,-0.414458881 146.622718,-0.110845759 143.803647,1.45930411 C140.975536,3.03072434 139.065593,5.38976019 138.084148,8.53260063 L0.560473412,476.767553 C-0.420971482,479.911664 -0.113624265,482.876656 1.48380644,485.653636 C3.08123714,488.435698 5.47415476,490.309461 8.67418166,491.274925 L31.5328081,497.443734 C34.4823083,498.41682 37.3711138,498.111937 40.1979334,496.539246 C43.0260443,494.960204 44.9321136,492.60879 45.9122672,489.471031 L183.439816,21.2284565 C184.419969,18.085616 184.115205,15.1206243 182.515191,12.3372923 C180.916469,9.55523061 178.526134,7.68146761 175.329982,6.71727363 Z" id="Shape" fill="#BF2E32"></path>
            <path d="M445.135258,255.627441 L264.969781,75.8603366 C262.39419,73.290382 259.427249,72 256.082501,72 C252.726919,72 249.770812,73.290382 247.185741,75.8603366 L227.860679,95.1485076 C225.285088,97.7198133 224,100.674856 224,104.021742 C224,107.368628 225.283733,110.325021 227.860679,112.894976 L379.804334,264.503378 L227.860679,416.119887 C225.285088,418.689842 224,421.650289 224,424.987716 C224,428.335954 225.283733,431.29505 227.860679,433.865004 L247.185741,453.143717 C249.770812,455.719076 252.728273,457 256.082501,457 C259.428603,457 262.39419,455.715023 264.969781,453.143717 L445.135258,273.377963 C447.712204,270.808009 449,267.843508 449,264.500676 C449,261.156492 447.712204,258.197396 445.135258,255.627441 Z" id="Shape" fill="#E23237"></path>
        </g>
    </g>
</svg>

<?xml version="1.0" encoding="utf-8"?>
<!-- Generator: Adobe Illustrator 22.1.0, SVG Export Plug-In . SVG Version: 6.00 Build 0)  -->
<svg version="1.1" id="圖層_1" xmlns="http://www.w3.org/2000/svg" xmlns:xlink="http://www.w3.org/1999/xlink" x="0px" y="0px"
	 viewBox="0 0 530 760" style="enable-background:new 0 0 530 760;" xml:space="preserve">
<style type="text/css">
	.st0{fill:#E23237;}
</style>
<title>/&gt;</title>
<desc>Created with Sketch.</desc>
<g id="_x2F__x3E_">
	<g id="code-copy" transform="translate(41.000000, 115.000000)">
		<path id="Shape" class="st0" d="M175.3,6.7l-22.9-6.2c-2.9-1-5.8-0.7-8.7,0.9c-2.8,1.6-4.7,3.9-5.7,7.1L0.6,476.8
			c-1,3.1-0.7,6.1,0.9,8.9c1.6,2.8,4,4.7,7.2,5.6l22.9,6.2c2.9,1,5.8,0.7,8.7-0.9c2.8-1.6,4.7-3.9,5.7-7.1L183.4,21.2
			c1-3.1,0.7-6.1-0.9-8.9C180.9,9.6,178.5,7.7,175.3,6.7z"/>
		<path id="Shape_1_" class="st0" d="M445.1,255.6L265,75.9c-2.6-2.6-5.5-3.9-8.9-3.9c-3.4,0-6.3,1.3-8.9,3.9l-19.3,19.3
			c-2.6,2.6-3.9,5.5-3.9,8.9s1.3,6.3,3.9,8.9l151.9,151.6L227.9,416.1c-2.6,2.6-3.9,5.5-3.9,8.9c0,3.3,1.3,6.3,3.9,8.9l19.3,19.3
			c2.6,2.6,5.5,3.9,8.9,3.9c3.3,0,6.3-1.3,8.9-3.9l180.2-179.8c2.6-2.6,3.9-5.5,3.9-8.9C449,261.2,447.7,258.2,445.1,255.6z"/>
	</g>
</g>
</svg>
